packages/icons/src/emoji/svg/painting.svg

<svg width="120" height="120" viewBox="0 0 120 120" fill="none" xmlns="http://www.w3.org/2000/svg">
<path d="M10.875 26.1187H109.941V97.0124H10.875V26.1187Z" fill="white"/>
<path d="M4.64025 103.547C1.809 100.547 1.34025 95.9626 3.56213 92.4845C5.8215 88.9407 7.509 85.2001 6.2715 80.6532C4.76213 75.0845 2.84963 69.6188 1.19025 64.097C0.637129 62.2595 0.674629 60.2907 1.29338 58.472C2.634 54.5907 3.25275 50.3813 4.94963 46.6501C7.68713 40.622 6.61838 35.4001 3.58088 30.4688C1.45275 27.0095 1.7715 22.5376 4.51838 19.5376C7.37775 16.4063 10.2465 16.247 16.0684 17.9438C17.2309 18.2813 18.4309 18.5157 19.5278 18.9845C26.8684 22.0782 33.8715 22.2376 41.2309 18.3095C43.7996 16.9407 48.534 16.9501 50.9246 18.4688C57.2528 22.472 62.9903 22.472 69.1684 18.8157C73.4621 16.2751 77.6715 16.097 81.834 19.247C85.4903 22.022 89.6434 22.2563 93.909 21.0751C97.2465 20.147 100.547 19.0782 103.847 18.0282C109.697 16.172 112.64 16.4063 115.631 19.8376C118.247 22.8282 118.472 27.2532 116.306 30.5813C114.112 33.947 112.312 37.4626 113.512 41.8688C115.078 47.6063 117.018 53.2407 118.715 58.9407C119.278 60.8157 119.222 62.8126 118.565 64.6595C117.262 68.3438 116.615 72.3376 114.975 75.8626C112.115 82.0313 113.118 87.422 116.278 92.4939C118.425 95.9438 118.115 100.434 115.359 103.425C112.547 106.472 109.743 106.678 104.193 105.122C102.74 104.709 101.24 104.391 99.8528 103.809C92.7559 100.838 86.0153 100.903 78.9371 104.531C76.2746 105.891 71.5403 106.134 69.2059 104.634C62.5403 100.359 56.5028 100.669 50.0621 104.428C45.9934 106.8 42.009 106.659 38.184 103.8C34.3403 100.931 30.0465 100.791 25.6309 101.963C22.4246 102.816 19.2653 103.875 16.0965 104.878C10.4059 106.706 7.51838 106.594 4.64025 103.547ZM59.9059 92.6813C72.609 92.6813 85.3215 92.7095 98.0246 92.672C103.64 92.6532 104.587 91.6876 104.597 85.997C104.615 69.6563 104.615 53.3251 104.597 36.9845C104.587 31.3501 103.378 30.1032 97.6309 30.0938C72.5153 30.0563 47.409 30.0657 22.2934 30.0938C16.4715 30.1032 15.2996 31.2751 15.2903 36.9188C15.2715 53.2595 15.2715 69.5907 15.2903 85.9314C15.2996 91.8657 16.1246 92.6626 22.2278 92.672C34.7996 92.7001 47.3528 92.6813 59.9059 92.6813Z" fill="#855C52"/>
<mask id="mask0_212_282" style="mask-type:luminance" maskUnits="userSpaceOnUse" x="19" y="35" width="81" height="53">
<path d="M19.959 35.2124H99.9371V87.928H19.959V35.2124Z" fill="white"/>
</mask>
<g mask="url(#mask0_212_282)">
<path d="M4.6875 107.456C4.6875 75.15 26.2781 46.875 38.4375 46.875C50.85 46.875 72.1875 75.15 72.1875 107.456C72.1875 139.753 57.075 165.938 38.4375 165.938C19.8 165.938 4.6875 139.753 4.6875 107.456Z" fill="#78A3AD"/>
</g>
<mask id="mask1_212_282" style="mask-type:luminance" maskUnits="userSpaceOnUse" x="19" y="35" width="81" height="53">
<path d="M19.959 35.2124H99.9371V87.928H19.959V35.2124Z" fill="white"/>
</mask>
<g mask="url(#mask1_212_282)">
<path d="M19.5371 130.631C46.8752 130.631 69.0371 115.781 69.0371 97.4624C69.0371 79.1439 46.8752 64.2937 19.5371 64.2937C-7.80099 64.2937 -29.9629 79.1439 -29.9629 97.4624C-29.9629 115.781 -7.80099 130.631 19.5371 130.631Z" fill="#757F3F"/>
</g>
<mask id="mask2_212_282" style="mask-type:luminance" maskUnits="userSpaceOnUse" x="19" y="35" width="81" height="53">
<path d="M19.959 35.2124H99.9371V87.928H19.959V35.2124Z" fill="white"/>
</mask>
<g mask="url(#mask2_212_282)">
<path d="M104.399 135.187C138.484 135.187 166.115 116.673 166.115 93.8343C166.115 70.9956 138.484 52.4812 104.399 52.4812C70.3146 52.4812 42.6836 70.9956 42.6836 93.8343C42.6836 116.673 70.3146 135.187 104.399 135.187Z" fill="#BDCF46"/>
</g>
<path d="M73.1348 52.4812C76.3967 52.4812 79.041 49.8369 79.041 46.575C79.041 43.313 76.3967 40.6687 73.1348 40.6687C69.8728 40.6687 67.2285 43.313 67.2285 46.575C67.2285 49.8369 69.8728 52.4812 73.1348 52.4812Z" fill="#FCC21B"/>
</svg>

<svg xmlns="http://www.w3.org/2000/svg" fill="none" aria-hidden="true" data-slot="icon" viewBox="0 0 120 120"><path fill="#fff" d="M10.875 26.119h99.066v70.893H10.875z"/><path fill="#855C52" d="M4.64 103.547c-2.831-3-3.3-7.584-1.078-11.062 2.26-3.544 3.947-7.285 2.71-11.832C4.762 75.085 2.85 69.62 1.19 64.097a9.22 9.22 0 0 1 .103-5.625c1.341-3.881 1.96-8.09 3.657-11.822 2.737-6.028 1.668-11.25-1.37-16.18-2.127-3.46-1.808-7.931.938-10.931 2.86-3.132 5.728-3.291 11.55-1.594 1.163.337 2.363.572 3.46 1.04 7.34 3.094 14.343 3.254 21.703-.675 2.569-1.368 7.303-1.359 9.694.16 6.328 4.003 12.065 4.003 18.243.347 4.294-2.54 8.503-2.719 12.666.431 3.656 2.775 7.81 3.01 12.075 1.828 3.337-.928 6.638-1.997 9.938-3.047 5.85-1.856 8.793-1.622 11.784 1.81 2.616 2.99 2.841 7.415.675 10.743-2.194 3.366-3.994 6.882-2.794 11.288 1.566 5.737 3.506 11.372 5.203 17.072a9.17 9.17 0 0 1-.15 5.718c-1.303 3.685-1.95 7.679-3.59 11.204-2.86 6.168-1.857 11.559 1.303 16.63 2.147 3.45 1.837 7.941-.919 10.932-2.812 3.047-5.616 3.253-11.166 1.697-1.453-.413-2.953-.731-4.34-1.313-7.097-2.971-13.838-2.906-20.916.722-2.662 1.36-7.397 1.603-9.731.103-6.666-4.275-12.703-3.965-19.144-.206-4.069 2.372-8.053 2.231-11.878-.628-3.844-2.869-8.137-3.009-12.553-1.837-3.206.853-6.366 1.912-9.535 2.915-5.69 1.828-8.578 1.716-11.456-1.331m55.266-10.866c12.703 0 25.416.029 38.119-.009 5.615-.019 6.562-.984 6.572-6.675.018-16.34.018-32.672 0-49.012-.01-5.635-1.219-6.882-6.966-6.891a28666 28666 0 0 0-75.338 0c-5.821.01-6.993 1.181-7.003 6.825-.018 16.34-.018 32.672 0 49.012.01 5.935.835 6.732 6.938 6.741 12.572.028 25.125.01 37.678.01"/><mask id="a" width="81" height="53" x="19" y="35" maskUnits="userSpaceOnUse" style="mask-type:luminance"><path fill="#fff" d="M19.959 35.212h79.978v52.716H19.96z"/></mask><g mask="url(#a)"><path fill="#78A3AD" d="M4.688 107.456c0-32.306 21.59-60.581 33.75-60.581 12.412 0 33.75 28.275 33.75 60.581 0 32.297-15.113 58.482-33.75 58.482-18.638 0-33.75-26.185-33.75-58.482"/></g><mask id="b" width="81" height="53" x="19" y="35" maskUnits="userSpaceOnUse" style="mask-type:luminance"><path fill="#fff" d="M19.959 35.212h79.978v52.716H19.96z"/></mask><g mask="url(#b)"><path fill="#757F3F" d="M19.537 130.631c27.338 0 49.5-14.85 49.5-33.169s-22.162-33.168-49.5-33.168-49.5 14.85-49.5 33.168c0 18.319 22.162 33.169 49.5 33.169"/></g><mask id="c" width="81" height="53" x="19" y="35" maskUnits="userSpaceOnUse" style="mask-type:luminance"><path fill="#fff" d="M19.959 35.212h79.978v52.716H19.96z"/></mask><g mask="url(#c)"><path fill="#BDCF46" d="M104.399 135.187c34.085 0 61.716-18.514 61.716-41.353 0-22.838-27.631-41.353-61.716-41.353S42.684 70.996 42.684 93.834s27.63 41.353 61.715 41.353"/></g><path fill="#FCC21B" d="M73.135 52.481a5.906 5.906 0 1 0 0-11.812 5.906 5.906 0 0 0 0 11.812"/></svg>
